X:1
T:Wind That Shakes the Barley
%%composerspace
C:from the playing of Sally Sloane
%%musicspace
L:1/8
M:4/4
K:D
A2 AB AF D2|B2 BA BcdB|A2 AB AF D2|f2ed B2d2|
A2 AB AF D2|B2 BA BcdB|A2 AB AF D2|f2ed B2d2|
f2f2 g2g2|f2ff ec A2|f2f2 g2g2|afed B2d2|
f2f2 g2gg|f2f2 ec A2|f4 g2fg|afed B2d2|]